X:403
T: Verzweiflung (126a), S. 286
N: T0291
O: Luxemburg
S: Singendes Volk, Esch-Alzette 1937 posth.]
N: Straen, fff Witry, 17.1.1933
R: Liebeslieder]
M: 4/4
L: 1/8
K: G
D2 | DBAGGFED | DBG2z2
D2 | DBAGGFED | DBG2z2
Bc | dBBBB2AB | c4z2
cc | cAGdddcc | B4z2

